X: 17
I: linebreak $
T: Two Fat Ladies
T: Barbarini's Tambourine
P: 
C: 
C: 
N: 
N: 
K: G major
M: 2/4
L: 1/16
Bc | "G"d2G2 G2G2 | "G"G2A2 A2B2 | "G"c2B2 "C"ABcB | "D7"AGA2 D2D2 | "G"Bcd2 G2G2 | "G"G2G2 A2A2 | 
"G"B2c2 "C"B2AB | "D7"cBAG "D7"A6 :: 
FG A2D2 | "D7"D2D2 "Em"D6GA B2E2 | "Em"E2E2 "D7"E6AB c2F2 | "G"F2Bc d2G2 | "C"G2cd "D7"e2c2 | "G"f2d2 g2fe | "G"d2c2 "D7"c2B2 | "G"AGB2 "C"A2GF | 
"G"A2G2 "D7"FED2 | "G"C2B,2 G2A,2 | F2G6 :| 

